X:1
T:Laszt uns jetzt  frölich
T:Giovanni Giacomo Gastoldi
T:Source : Tricinia---Johann-Jacob Gastoldi and anderer Autorn---Nürnberg---P.Kauffmann---1607. Editor : André Vierendeels (14/03/17).
T:Notes : Original clefs : C1, C1, F4 Text Middle German by Valentin Hauszmann
T:Laszt uns jetzt  frölich
T:©
T:©
T:©
C:Giovanni Giacomo Gastoldi
Z:©
%%score [ 1 2 3 ]
L:1/8
Q:1/4=120
M:4/4
K:F
V:1 treble nm="Soprano 1" snm="S 1"
V:2 treble nm="Soprano 2" snm="S 2"
V:3 bass nm="Bass" snm="B"
V:1
"^1)" A2 AA B2 G2 | ^F4 G4 | z AAB c2 B2 | A6 d2 | c2 B2 AG G2- | G2 ^F2 G4 :: B2 AG A2 B2 | %7
w: Laszt uns jetzt frö- lich|sin- gen,|ei- ner dem an- dern|auch e|Trunck zu brin- * *|* * gen,-|weil wir in Got- tes|
w: Wer will uns sol- ches|weh- ren,|in di- ser e- zeit,|weils uns|Gott thut be- * sche-|* * ren,|frö- lig- keit zim- li-|
 c2 B4 A2 | B2 F2 F3 E | D2 D2 d4- | d2 c=B ^c4 | d8 | z8 | z2 B2 B2 G2 | F2 B2 A2 G2 | z8 | %16
w: Na- * *|men, sind kom- men|hie zu- sam-||men,||machs bald, lasz|umb- her tra- ben,||
w: cher mas- *|se, wil Gott ihm|g'fal- len las-||sen,||dar- umb trinckt|oh- ne sor- gen,||
 z2 d2 d2 B2 | A2 G2 ^F4 | !fermata!G8 :| %19
w: machs bald, lasz|umb- her tra-|ben.|
w: bis an den|hel- len mor-|gen.|
V:2
"^2)" z8 |"^1)" A2 AA B2 G2 | ^F4 G4 | z AAB c2 B2 | A2 d2 c3 B | A4 G4 :: z4 d2 cB | A2 B2 c4 | %8
w: |Lasz uns jetzt frö- lich|sin- gen,|ei- ner dem an- dern|auch ein trunck zu-|brin- gen,|weil wir in|Got- tes Na-|
 d4 z2 F2 | F3 E D2 D2 | F2 ED E4 | D8 | z8 | z2 d2 d2 B2 | A2 G2 ^F2 G2 | z8 | z2 B2 B2 G2 | %17
w: men, sind|kom- men hie zu-|sam- * * *|men,||machs bald, lasz|umb- her tra- ben,||machs bald, lasz|
 ^F2 B2 A4 | !fermata!G8 :| %19
w: umb- her tra-|ben.|
V:3
 z8 |"^1)" D,2 D,D, G,2 E,2 | D,4 C,4 | z F,F,G, F,2 B,,2 | F,2 G,2 C,2 C,2 | D,4 G,,4 :: %6
w: |Lasz uns jetzt frö- lich|sin- gen,|ei- ner dem an- dern|auch ein trunck zu-|brin- gen,|
 G,2 F,E, D,2 G,2 | F,8 | B,,4 z2 D,2 | D,3 C, B,,2 B,,2 | A,,8 | D,4 z2 G,A, | B,2 A,G, ^F,4 | %13
w: weil wir in Got- tes|Na-|men, sind|kom- men hie zu-|sam-|men, bru- der|den solt du ha-|
 G,8 | z4 z2 G,A, | B,2 A,G, ^F,4 | G,2 G,2 G,2 G,2 | D,2 G,,2 D,4 | !fermata!G,,8 :| %19
w: ben,|bru- der|den solt du ha-|ben, machs bald, lasz|umb- her tra-|ben.|

